dist/images/icons/telegram.svg

<svg width="15" height="15" viewBox="0 0 15 15" fill="none" xmlns="http://www.w3.org/2000/svg">
<path d="M9.31798 14.3001C9.05865 14.3001 8.81928 14.1616 8.70234 13.9406L6.66076 10.0822C6.54864 9.87034 6.5679 9.61684 6.71028 9.42119L10.0058 5.20009L5.53816 8.31359C5.33112 8.44879 5.06285 8.46569 4.83861 8.36039L0.756133 6.43184C0.511253 6.31549 0.361987 6.07304 0.37712 5.81434C0.391565 5.55564 0.568346 5.32944 0.825607 5.24039L13.895 0.690388C14.1461 0.603938 14.4288 0.660488 14.6193 0.840538C14.8092 1.01929 14.8711 1.28709 14.7782 1.52499L9.96319 13.875C9.86827 14.1181 9.62958 14.2851 9.35581 14.2988C9.34343 14.2994 9.33036 14.3001 9.31798 14.3001Z" fill="white"/>
</svg>

<svg width="15" height="15" fill="none" xmlns="http://www.w3.org/2000/svg"><path d="M9.318 14.3a.694.694 0 01-.616-.36l-2.041-3.858a.622.622 0 01.05-.66L10.005 5.2 5.538 8.314a.725.725 0 01-.7.046L.757 6.432a.646.646 0 01-.379-.618.653.653 0 01.449-.574L13.895.69a.719.719 0 01.724.15c.19.18.252.447.16.685l-4.816 12.35a.684.684 0 01-.607.424l-.038.001z" fill="#fff"/></svg>
